SVG/Apps-Google-Chrome.svg

<?xml version="1.0" encoding="utf-8"?>
<!-- Generator: Adobe Illustrator 16.0.4, SVG Export Plug-In . SVG Version: 6.00 Build 0)  -->
<!DOCTYPE svg PUBLIC "-//W3C//DTD SVG 1.1//EN" "http://www.w3.org/Graphics/SVG/1.1/DTD/svg11.dtd">
<svg version="1.1" id="Google-Chrome" image-rendering="optimizeSpeed"
	 xmlns="http://www.w3.org/2000/svg" xmlns:xlink="http://www.w3.org/1999/xlink" x="0px" y="0px" width="1024px" height="1024px"
	 viewBox="0 0 1024 1024" enable-background="new 0 0 1024 1024" xml:space="preserve">
<path fill="none" d="z"/>
<g id="shadow">
	<g id="shape">
		<path id="path" fill-opacity="0.098" d="M969.6,351.25c-5.732-13.9-12.199-27.517-19.399-40.85c-4.05-7.55-8.351-15.05-12.9-22.4
			c-19.55-31.7-43.399-61.65-71.55-89.8C773.6,106.05,662.3,59.95,531.95,59.95c-130.351,0-241.6,46.1-333.75,138.25
			C106.05,290.35,59.95,401.6,59.95,531.95c0,130.35,46.1,241.649,138.25,333.8c92.15,92.15,203.399,138.2,333.75,138.2
			c130.35,0,241.649-46.05,333.8-138.2C916.5,814.95,953.3,758.35,976.1,696c18.551-50.85,27.851-105.5,27.851-164.05
			c0-44.9-5.45-87.55-16.4-127.95c-1.25-4.55-2.55-9.1-3.899-13.6C979.55,377.1,974.85,364.05,969.6,351.25z"/>
	</g>
</g>
<g id="circle">
	<g id="shape2">
		<path id="path1" fill="#E85479" d="M982.05,516.95c0-1.634,0-3.283,0-4.95c0-130.35-46.05-241.6-138.2-333.75
			C751.95,86.4,641,40.3,511.05,40.05V515h2v1.95H982.05z"/>
		<path id="path2" fill="#00C0E6" d="M511.05,40.05c-0.35,0-0.649,0-1,0c-130.35,0-241.6,46.05-333.75,138.2
			C84.15,270.4,38.1,381.65,38.1,512c0,1,0,2,0,3h472.95V40.05z"/>
		<path id="path3" fill="#EBC240" d="M513.05,516.95V515h-2H38.1c0.7,129.1,46.75,239.35,138.2,330.8
			C268.45,937.95,379.7,984,510.05,984c0.351,0,0.65,0,1,0c0.65,0,1.351,0,2,0V516.95z"/>
		<path id="path4" fill="#55DA97" d="M513.05,516.95V984c129.101-0.75,239.351-46.8,330.8-138.2
			c90.95-91,137.051-200.6,138.2-328.85H513.05z"/>
	</g>
</g>
<g id="inner-circle">
	<g id="shape8">
		<path id="path5" fill="#FFFFFF" d="M862.4,528.8c0.232-5.551,0.35-11.15,0.35-16.8c0-96.85-34.25-179.55-102.7-248
			c-68.5-68.45-151.2-102.7-248.05-102.7S332.45,195.55,264,264S161.3,415.15,161.3,512S195.55,691.55,264,760.05
			c68.45,68.45,151.15,102.7,248,102.7c31.4,0,61.3-3.6,89.75-10.8c59.2-15,112-45.65,158.3-91.9
			C824.45,695.6,858.6,618.6,862.4,528.8z"/>
	</g>
</g>
<path fill="none" d="z"/>
<g opacity="0.1">
	<path d="M760.025,760.025c51.239-51.279,83.306-110.512,96.195-177.805L659.5,385.5l-169-39l-118,117l16,193l198.744,198.744
		c4.866-1.008,9.696-2.107,14.48-3.318C660.926,836.926,713.725,806.275,760.025,760.025z"/>
</g>
<g>
	<path fill="#96A6A6" stroke="#96A6A6" stroke-width="29.0056" stroke-miterlimit="10" d="M687,526.019
		c0,48.325-14.348,86.852-43.037,115.535c-32.535,34.168-74.909,51.25-127.135,51.25c-49.95,0-92.401-17.334-127.373-51.964
		C354.471,606.208,337,563.251,337,512c0-51.248,17.471-94.18,52.455-128.837c34.972-34.646,77.423-51.967,127.373-51.967
		c24.831,0,48.504,4.831,71.064,14.509c22.555,9.676,40.621,22.562,54.128,38.665l-30.449,30.453
		c-22.89-27.384-54.454-41.082-94.743-41.082c-36.422,0-67.911,12.813-94.511,38.438c-26.577,25.62-39.872,58.905-39.872,99.821
		c0,40.946,13.295,74.197,39.872,99.822c26.6,25.625,58.089,38.418,94.511,38.418c38.669,0,70.92-12.854,96.69-38.668
		c16.751-16.753,26.41-40.107,29.017-70.096H516.828v-41.569h167.761C686.207,508.937,687,517.642,687,526.019z"/>
</g>
</svg>

<?xml version="1.0" encoding="utf-8"?>
<!-- Generator: flash2svg, http://dissentgraphics.com/tools/flash2svg -->
<svg id="Google-Chrome" image-rendering="optimizeSpeed" baseProfile="basic" version="1.1" style="background-color:#FFFFFF" x="0px" y="0px" width="1024px" height="1024px" viewBox="0 0 1024 1024" enable-background="new 0 0 1024 1024" xmlns="http://www.w3.org/2000/svg" xmlns:xlink="http://www.w3.org/1999/xlink">
  <defs transform="matrix(1 0 0 1 0 0) "/>
  <g id="shadow">
    <g id="shape">
      <path id="path" fill="#000000" fill-opacity="0.09803921568627451" d="M969.6,351.25 Q961,330.4 950.2,310.4 C946.15,302.85 941.85,295.35 937.3,288 917.75,256.3 893.9,226.35 865.75,198.2 773.6,106.05 662.3,59.95 531.95,59.95 401.6,59.95 290.35,106.05 198.2,198.2 106.05,290.35 59.95,401.6 59.95,531.95 59.95,662.3 106.05,773.6 198.2,865.75 290.35,957.9 401.6,1003.95 531.95,1003.95 662.3,1003.95 773.6,957.9 865.75,865.75 916.5,814.95 953.3,758.35 976.1,696 994.65,645.15 1003.95,590.5 1003.95,531.95 1003.95,487.05 998.5,444.4 987.55,404 986.3,399.45 985,394.9 983.65,390.4 979.55,377.1 974.85,364.05 969.6,351.25z"/>
    </g>
  </g>
  <g id="circle">
    <g id="shape2">
      <path id="path1" fill="#E85479" fill-opacity="1" d="M982.05,516.95 Q982.05,514.5 982.05,512 C982.05,381.65 936,270.4 843.85,178.25 751.95,86.4 641,40.3 511.05,40.05 L511.05,515 513.05,515 513.05,516.95 982.05,516.95z"/>
      <path id="path2" fill="#00C0E6" fill-opacity="1" d="M511.05,40.05 C510.7,40.05 510.4,40.05 510.05,40.05 379.7,40.05 268.45,86.1 176.3,178.25 84.15,270.4 38.1,381.65 38.1,512 38.1,513 38.1,514 38.1,515 L511.05,515 511.05,40.05z"/>
      <path id="path3" fill="#EBC240" fill-opacity="1" d="M513.05,516.95 L513.05,515 511.05,515 38.1,515 C38.8,644.1 84.85,754.35 176.3,845.8 268.45,937.95 379.7,984 510.05,984 510.4,984 510.7,984 511.05,984 511.7,984 512.4,984 513.05,984 L513.05,516.95z"/>
      <path id="path4" fill="#55DA97" fill-opacity="1" d="M513.05,516.95 L513.05,984 C642.15,983.25 752.4,937.2 843.85,845.8 934.8,754.8 980.9,645.2 982.05,516.95 L513.05,516.95z"/>
    </g>
  </g>
  <g id="inner-circle">
    <g id="shape8">
      <path id="path5" fill="#FFFFFF" fill-opacity="1" d="M862.4,528.8 Q862.75,520.474 862.75,512 C862.75,415.15 828.5,332.45 760.05,264 691.55,195.55 608.85,161.3 512,161.3 415.15,161.3 332.45,195.55 264,264 195.55,332.45 161.3,415.15 161.3,512 161.3,608.85 195.55,691.55 264,760.05 332.45,828.5 415.15,862.75 512,862.75 543.4,862.75 573.3,859.15 601.75,851.95 660.95,836.95 713.75,806.3 760.05,760.05 824.45,695.6 858.6,618.6 862.4,528.8z"/>
    </g>
  </g>
  <g id="ico-shadow">
    <g id="shape10">
      <path id="path6" fill="#000000" fill-opacity="0.09803921568627451" d="M760.05,758.05 Q856.75,661.3 862.4,526.8 L634.5,298.9 491,308.8 448.95,339.2 447.25,437.1 526.95,471.4 524,536 430.2,564.05 397.3,645.5 601.75,849.95 C660.95,834.95 713.75,804.3 760.05,758.05z"/>
    </g>
  </g>
  <g id="ico">
    <g id="shape12">
      <path id="path7" fill="#96A6A6" fill-opacity="1" d="M443.65,331.15 C433.85,339.6 426.15,349.8 420.55,361.8 415,373.8 412.2,386.2 412.2,399 412.2,422.05 420.1,441.05 435.9,456 451.7,471 471.1,478.5 494.15,478.5 L510.05,477.65 C506.8,484.6 505.15,491.25 505.15,497.5 505.15,503.9 506.4,509.6 508.85,514.65 L519.9,531.85 C477.35,534.55 445.9,542.3 425.45,555.1 414,562.35 404.85,571.35 397.9,582.1 390.95,592.75 387.45,604.4 387.45,617.05 387.45,628.2 390.25,638.45 395.85,647.7 404.8,662.55 418.25,673.25 436.1,679.8 453.95,686.2 473.15,689.4 493.7,689.4 518.65,689.4 541.85,684.95 563.4,676.1 574.15,671.6 583.65,665.8 591.8,658.75 599.95,651.8 606.8,643.55 612.25,634 619.9,621.35 623.7,607.9 623.7,593.75 623.7,581.6 621.25,570.5 616.35,560.45 611.3,550.5 605.2,542.45 598.15,536.3 L577.1,519.15 559.1,503.2 C554.05,497.75 551.55,492.25 551.55,486.65 551.55,481.35 553.45,476.25 557.3,471.35 L571.15,457.05 587.3,441.7 C592.75,436.25 597.4,429.05 601.2,420.05 605.05,411.05 606.95,400.95 606.95,389.8 606.95,375.75 604,363.3 598.15,352.4 592.15,341.5 583.35,331.15 571.8,321.35 L602.45,321.35 634.5,300.9 537.05,300.9 C519.6,300.9 502.65,303.35 486.15,308.25 469.7,313.3 455.5,320.9 443.65,331.15z M481.85,324.6 C488.1,321.45 494.55,319.9 501.1,319.9 511.15,319.9 520.3,323.1 528.45,329.5 536.8,335.9 543.35,343.95 548.1,353.6 553,363.45 556.75,373.5 559.3,383.85 561.9,394.2 563.2,403.95 563.2,413.1 563.2,429.15 559.1,441.55 550.95,450.3 547,454.5 541.85,457.9 535.6,460.5 529.35,463.1 523.3,464.4 517.45,464.4 509.4,464.4 501.9,462.35 494.95,458.25 488,454.2 482.1,448.95 477.35,442.5 472.7,436.1 468.7,428.95 465.3,421.05 461.9,413 459.45,405 457.95,396.95 L455.7,374.05 C455.7,358.4 459.25,346 466.35,336.85 Q472.45,329.1 481.85,324.6z M525.2,546.15 L536.65,546.55 C538.8,548.05 541.65,550.1 545.2,552.65 L563.4,566.35 572.4,574.35 579.35,582.5 585.7,592.3 588.95,602.1 590.6,613.55 C590.6,623.25 588.5,631.7 584.25,638.9 579.9,646.25 574.15,652 567.1,656.1 560,660.15 552.3,663.15 544,665.05 535.7,667.1 527.05,668.15 518.05,668.15 L494.35,666.3 C486.45,664.95 478.6,662.6 470.85,659.35 463.2,656.2 456.45,652.35 450.6,647.7 444.75,643.2 439.95,637.35 436.3,630.1 432.65,622.9 430.8,614.95 430.8,606.2 430.8,597.05 432.9,588.9 437.1,581.7 441.35,574.45 446.7,568.65 453.25,564.3 459.65,559.95 467.15,556.35 475.75,553.5 L500.85,547.75 525.2,546.15z"/>
    </g>
  </g>
</svg>
